!!!COM: Palestrina, Giovanni Perluigi da
!!!OPR: Missa Spem In Alium
!!!OMD: Credo
!!!OTL: Crucifixus
**kern	**kern	**kern
*Ibass	*Itenor	*Icalto
!Bassus	!Tenor	!Altus
*clefF4	*clefGv2	*clefG2
*k[]	*k[]	*k[]
*A:aeo	*A:aeo	*A:aeo
*M4/2	*M4/2	*M4/2
=85	=85	=85
0r	0r	0d
=86	=86	=86
0r	0r	1f
.	.	1g
=87	=87	=87
0r	0A	1a
.	.	2.cc
.	.	4b
=88	=88	=88
0r	1c	2a
.	.	2g
.	1d	1f
=89	=89	=89
1r	1e	2e
.	.	2c
[1D	2.f	4d
.	.	4e
.	.	4f
.	4e	4g
=90	=90	=90
1D]	1.d	4a
.	.	4f
.	.	2b-
1F	.	1a
.	2c	.
=91	=91	=91
1G	1B	1r
1A	1A	2.cc
.	.	4b
=92	=92	=92
2.c	2.e	2a
.	.	2g
4B	4d	.
2A	2c	2a
2G	[2d	[2b
=93	=93	=93
1F	4d]	4b]
.	4c	4a
.	2A	1a
1E	1B	.
.	.	2g
=94	=94	=94
0A	2.A	2f
.	.	4e
.	4B	4d
.	4c	2e
.	4d	.
.	[2e	2c
=95	=95	=95
1r	2e]	1f
.	1d	.
1A	.	1e
.	4c	.
.	4B	.
=96	=96	=96
2A	2c	1r
2G	2B	.
2F	1A	1a
2D	.	.
=97	=97	=97
2F	1r	2a
2E	.	2g
4D	1d	2f
4E	.	.
4F	.	2d
4G	.	.
=98	=98	=98
1A	2d	2f
.	2c	2e
1r	2f	4d
.	.	4e
.	2d	4f
.	.	4g
=99	=99	=99
1r	2f	1a
.	4e	.
.	4d	.
2r	1e	1r
2A	.	.
=100	=100	=100
2A	1A	1a
2G	.	.
2F	1r	2a
2E	.	2g
=101	=101	=101
4D	1a	2f
4E	.	.
4F	.	2d
4G	.	.
4A	2a	2f
4B	.	.
2c	2g	[2e
=102	=102	=102
2d	2f	4e]
.	.	4d
2G	2d	1d
1A	2f	.
.	[2e	2c#
=103	=103	=103
1B-	4e]	1d
.	4d	.
.	1d	.
1A	.	1e
.	2c#	.
=104	=104	=104
0D	1d	1d
.	2r	1f
.	[2d	.
=105	=105	=105
2r	2d]	0e
1A	2c	.
.	2A	.
2G	2B	.
=106	=106	=106
2E	2.c	0r
2F	.	.
.	4d	.
2G	2e	.
[2A	[2f	.
=107	=107	=107
4A]	4f]	1r
4G	4e	.
2E	1e	.
1F	.	2r
.	2d	[2a
=108	=108	=108
1E	1e	2a]
.	.	2g
2.A	1r	2e
.	.	2f
8G	.	.
8F	.	.
=109	=109	=109
2E	2r	2g
4D	1d	2.a
4E	.	.
4F	.	.
4G	.	4g
2A	2c	2e
=110	=110	=110
1D	2A	1f
.	2B	.
2A	2c	2e
[2D	[2d	4d
.	.	4e
=111	=111	=111
2D]	4d]	4f
.	4c	4g
2F	2A	1a
1E	1B	.
.	.	2g#
=112	=112	=112
1A	0A	[0a
2r	.	.
2D	.	.
=113	=113	=113
2D	2r	1a]
2D	2A	.
2.F	2A	1r
.	2A	.
4G	.	.
=114	=114	=114
2A	2.c	0r
2F	.	.
.	4d	.
2G	2e	.
2A	2c	.
=115	=115	=115
[0B-	1d	2r
.	.	2d
.	2.f	2d
.	.	2d
.	4e	.
=116	=116	=116
1B-]	4d	2.f
.	4c	.
.	1d	.
.	.	4g
1A	.	[1a
.	2c	.
=117	=117	=117
1d	2f	2a]
.	2d	2f
2c	2e	2g
2A	[2f	2a
=118	=118	=118
1G	2f]	1b-
.	2e	.
1F	[1f	[1a
=119	=119	=119
2r	0f]	1a]
2F	.	.
1B-	.	2.d
.	.	4e
=120	=120	=120
1A	0r	2f
.	.	4e
.	.	4d
2G	.	1e
[2A	.	.
=121	=121	=121
4A]	1c	1A
4G	.	.
4F	.	.
4E	.	.
4D	1f	1r
4E	.	.
4F	.	.
4G	.	.
=122	=122	=122
4A	1e	0r
4B	.	.
4c	.	.
4A	.	.
2B	2d	.
2c	[2e	.
=123	=123	=123
2.A	4e]	1c
.	4d	.
.	4c	.
4G	4B	.
2F	2A	1f
2E	[2d	.
=124	=124	=124
1A	2d]	1e
.	2c	.
1r	2B	2d
.	4A	[2e
.	4B	.
=125	=125	=125
1C	4c	4e]
.	4d	4d
.	2e	4c
.	.	4B
1F	2c	2A
.	4B	[2a
.	4A	.
=126	=126	=126
2E	1B	2a]
2E	.	2g#
2F	1A	2.a
4D	.	.
4E	.	4g
=127	=127	=127
4F	2r	2f
4G	.	.
2A	2c	2e
2D	1f	1d
[2d	.	.
=128	=128	=128
2d]	1e	1A
2c	.	.
2B	2d	1r
2G	[2e	.
=129	=129	=129
2.A	4e]	1r
.	4d	.
.	4c	.
4G	4B	.
4F	2A	1f
4E	.	.
2D	[2d	.
=130	=130	=130
1G	2d]	1b-
.	2e	.
1F	2.f	1a
.	8e	.
.	8d	.
=131	=131	=131
1r	2e	2g
.	2f	2.a
1F	2c	.
.	.	4g
.	[2f	4f
.	.	4e
=132	=132	=132
1B-	4f]	2.d
.	4e	.
.	2d	.
.	.	4e
2A	2c	4f
.	.	4e
2G	[2e	[2g
=133	=133	=133
1B-	4e]	4g]
.	4d	4f
.	1d	4f
.	.	8e
.	.	8d
1A	.	1e
.	2c#	.
=134	=134	=134
0D	0d	0d
*-	*-	*-
!!!CDT: 1525/^1526/-1594/2/2
!!!OCY: Italia
!!!AGN: Mass (Parody)
!!!AST: renaissance, vocal
!!!ASW: Motet 1539 (Jacquet)
!!!PWK: Masses, Book 3
!!!RNB: Cadence finals: D
!!!YOR: Le Opere Complete, v. 6, p. 1
!!!YOO: Rome, Italy: Fratelli Scalera
!!!END: 1992//
!!!EED: John Miller
!!!YEC: Copyright 2000, John Miller
!!!YEN: United States of America
!!!YEM: Rights to all derivative electronic formats reserved.
!!!YEM: Refer to licensing agreement for further details.
!!!YEM: This file must be accompanied by the licensing agreement.
!!!YEM: A copy of the licensing agreement may be found at http://www.music-cog.ohio-state.edu/HumdrumDatabases/Palestrina/license.txt
!!!EMD: converted to Humdrum by Bret Aarden
